!!!OTL: MIT SANFTEM KUMMER UND SORGEN
!!!ARE: Europa, Mitteleuropa, Deutschland, Hessen, Odenwald
!!!SCT: E0542
!!!YEM: Copyright 1995, estate of Helmut Schaffrath.
**kern
*ICvox
*Ivox
*M6/8
*k[f#c#g#]
*A:
{8e
=1
8c#
8e
8a
8c#
8e
8a
=2
4cc#
8ee
4b}
{8e
=3
8e
8g#
8b
8b
8cc#
8dd
=4
4cc#
8ee
4cc#}
{16e
16g#
=5
4a
8cc#
4cc#
8cc#
=6
4ee
8ee
8cc#
8ff#}
{8ee
=7
4dd
8dd
8b
8ff#
16ee
16dd
=8
2cc#
8r}
{16e
16g#
=9
4a
8cc#
4cc#
8cc#
=10
4ee
8ee
8cc#
8ff#}
{8ee
=11
4dd
8dd
8b
8ff#
16ee
16dd
=12
2cc#
8r}
==
!!!AGN: Liebes - Lied
!!!ONB: ESAC (Essen Associative Code) Database: ERK1
!!!AMT: compound duple
!!!AIN: vox
!!!EED: Helmut Schaffrath
!!!EEV: 1.0
*-
